X:1
T:Rondo Alla Soviet
T:Rondo Alla Soviet
T:James Kwan
C:James Kwan
%%score { ( 1 3 ) | 2 }
L:1/8
M:2/4
K:C
V:1 treble nm="Piano" snm="Pno."
V:3 treble 
V:2 bass 
V:1
!p! (B/A/^G/A/ | .c) z (d/c/^F/G/ | .B) z (c/B/^g/a/ | e'/d'/^c'/d'/ e'/d'/^g/a/ | c'2) .a.f' | %5
{c'd'} .e'.[bd'].[ac'].[bd'] |{c'd'} .e'.[bd'].[ac'].[bd'] |{c'd'} .e'.[^ce].[^d^f].[^Ac] | %8
 e2!mf! .[GB].[=d=f] | .[eg].[^FA] (e/d/c/B/ | A2)!p! .[GB].[df] | .[eg].[eg] (a/g/c/B/ | %12
 [^FA]2)!mf! .[EG].[eg] | .[fa].[fa] (_b/e/d/c/ | B2)!p! .[Ac].[^ce] | .[d^f].[GB] (c/e/A/G/ | %16
 [^GB]2)!p! (B/A/G/A/ | .c) z (d/c/^F/G/"^Chorus" | .B) z (c/B/^A/B/ | %19
!<(! ^f/e/^d/e/ f/e/d/e/!<)! |!f!!>(! c'2)!>)!!p! .a.b | .c'.b.a.^b | .^c'.^g.a.A | %23
 G2 (^F3/2E/4F/4 | E2)!f! [Ee][^G^g] | [^A^a]2 [^F^f][ee'] | [^f^f'][ee'][dd'][^c^c'] | %27
 [Bb][^c^c'][dd'][ee'] | [^c^c'][Aa][Aa][Bb] | [^c^c']2 [Aa][^d^d'] | [^e^e'][^d^d'][^c^c'][^G^g] | %31
 [^F^f][Bb][^G^g][Ee] | [Aa]2!p! (^c'/d'/^f'/e'/ | d'/e'/d'/^c'/ b/d'/^b/^a/ | %34
 ^^g/^a/^b/g/ ^e/^^f/e/^c/ | ^f/!<(!^e/f/^g/ a/g/a/b/!<)! | ^c'/^b/c'/b/!>(! c'/d'/c'/=b/!>)! | %37
!p! a/b/a/^g/ ^f/a/g/f/ | e/^f/^g/e/ ^c/^d/e/c/ | ^d/e/^f/d/ ^B/^c/d/B/ | ^c2)!f! (e/d/c/B/) | %41
 (A/B/^c/d/ e/^f/^g/a/) | (a/^g/^f/e/ e/d/^c/B/) | (A/B/^c/d/ e/^f/^g/a/ | ^ab) (e/d/^c/B/) | %45
 (A/B/^c/d/ e/^f/^g/a/) | (a/^g/^f/e/ e/d/^c/B/) | (^c/e/A/c/ B/d/^G/B/ | A2)!p! (^c'/d'/c'/b/ | %49
 a/b/a/^g/ ^f/a/g/f/ | ^e/^f/^g/e/ ^c/^d/e/c/ | ^f/^e/f/^g/ a/g/a/b/ | %52
 ^c'/!<(!^b/c'/b/ c'/b/c'/^a/ | d'/^c'/d'/c'/ d'/!<)!c'/d'/c'/ | d'/!>(!^c'/b/a/ ^g/a/b/!>)!g/ | %55
!p! a/b/^c'/^f/ ^e/f/^g/e/ | ^f2)!f! [^c^c'][^d^d'] | [^e^e']2 [^c^c'][^d^d'] | %58
 [^a^a'][^g^g'][^f^f'][^e^e'] | [^d^d'][^e^e'][^f^f'][^g^g'] | [^B^b][^G^g][^c^c'][^d^d'] | %61
 [^^c^^c']2 [^A^a][^B^b] | [^e^e'][^d^d'][^c^c'][^B^b] | [^A^a][^d^d'][^B^b][^G^g]"^Chorus" | %64
 [^c^c']2!p! (B/A/^A/B/ | .d) z (A/G/^F/G/ | .e) z (e/^d/^^c/d/ | ^a/^g/^^f/g/ a/g/f/g/ | %68
 c'2) .a.c' |{b^c'} .^d'.[^ac'].[^gb].[ac'] |{de} .^f.[^ce].[Bd].[ce] | %71
{_bc'} .d'.[ac'].[eg].[^d^f] | f2!mf! .[ce].[=d=f] | .[^gb].[gb] (a/=g/_b/a/ | g2)!p! .[d^f].[eg] | %75
 .[^fa].[fa] (b/a/g/f/ | [Bd]2)!mf! .[^A^c].[^B^d] | .[^c^e].[ce] (f/^g/^f/_A/ | %78
 G2)!p! .[F_A].[G_B] | .[ce].[ce] (f/e/d/c/ | [^GB]2)!p! (^A/G/^^F/G/ | .B) z (_e/_d/c/d/ | %82
 .f) z (_f/_e/d/e/ | _b/_a/g/a/ b/a/g/a/ |!f!!>(! _c'2)!>)!!p! .g.^c' | .d'.^c'.b.^a | .b.^f.g.e | %87
 d2 (^c3/2A/4B/4 | A2)!f! (^A/^a/^B/^b/ | ^^c/^^c'/) z (_A/_a/_B/_b/ | c/c'/_B/_b/ _A/_a/G/g/ | %91
 ^^F/^^f/^^G/^^g/ ^A/^a/^B/^b/ | ^^G/^^g/^E/^e/) (^A/^a/^B/^b/ | ^^c/^^c'/) z (_A/_a/_B/_b/ | %94
 c/c'/_B/_b/ _A/_a/G/g/ | ^^F/^^f/^B/^b/ G/g/_E/_e/ | [^F^f]2) [Ff]2 | d2!f! !arpeggio!^^f'2- | %98
 f'2 !arpeggio!^f'2- | f'2 (=f'/e'/)c'/d'/ | (d'/^c'/)c'/^d'/ [a=c'f']2- | %101
 [ac'f']2{/^c'} .[^d^g^b]{/_e'}.[f_bd'] |{/_e'}.[f_bd']{/=b}.[^c^f^a] (b2- | %103
 ^c'^f') !arpeggio!f'2- | f'2 !arpeggio!^g2- | g2 (^c'/^b/)^a/b/ | (^c'/b/)a/b/ [eg=c']2- | %107
 [egc']2{/_a'} [_b_e'g']2- | [ea^c']2{/^^c'} .[^e^^g^b]{/c'}.[egb] | %109
{/^^c'} .[^e^^g^b]{/c'}.[egb] a2"^Chorus" |!p!{/Be} ^g>^c'{/ad'} ^f'2- | f'2{/ea} ^c'2- | %112
 c'2 e'/^c'/b/c'/ | f'/e'/d'/e'/ f'2- | d'2{/^g'} ^^f'{/g'}f' |{/a'}^g'{/a'}g' (^c'2- | %116
 c'^f')!f! !arpeggio!^^c'2- | ^c'2 !arpeggio!^a2- | a2!<(! (d'/^c'/)b/c'/ | (c'/b/)a/b/ [^fad']2- | %120
 [fad']2{/g'} [ad'^f']2- | [ad'f']2{/a} .[ceg]{/a}.[ceg] | %122
{/^b}.[^d^^f^a]{/b}.[dfa]!<)!!ff! ([^c^e^g^c']2- | [cegc'][^e^e']) ([Aa]2- | [Aa][ee']) ([Aa]2- | %125
 [Aa][^c^c']) .[_A_a].[dd'] |.[^A^a].[_e_e'] .[=A=a]2 | !>![d^fad']2 !>![dfad']2 |] %128
V:2
 G,C- | CG,- G,/A,/B,- | B,E, E,A,- | A,G,- G,/F,/G,- | G,C, C,D,- | D,D,- D,/E,/F,- | %6
w: Со- юз|* не- * ру- ши-|* мый рес- пуб-|* лик * сво- бод-|* ных Спло- ти-|* ла * на- ве-|
w: Мы ар-|* ми- * ю на-|* шу рас- ти-|* ли * в'сра- жень-|* ях, За- хват-|* чи- * ков под-|
 F,F,- F,/G,/A,- | A,^F,- ^A,/C/D- | D2 G,E- | ED- D/C/D- | DB, G,C- | CB,- B,/A,/B,- | %12
w: * ки * Ве- ли-|* ка- * я Русь.|* Да здрав-|* ству- * ет соз-|* дан- ный во-|* лей * на- ро-|
w: * лых * с'до- ро-|* ги * сме- тем!|* Мы в'бит-|* вах * ре- ша-|* ем судь- бу|* по- * ко- ле-|
 B,E, E,A,- | A,G,- G,/F,/G,- | G,C, C,C- | CB,- B,/A,/G, | B,C D"^Chorus"E- | E2 ED | CB, CD- | %19
w: * дов Е- ди-|* ный, * мо- гу-|* чий Со- вет-|* ский * Со- юз!|_ _ _ Славь-|* * ся,|* О- * те-|
w: * ний, Мы к'сла-|* ве * От- чиз-|* ну сво- ю|* по- * ве- дем!|_ _ _ _|||
 D2 G,G, | B,C DC- | C2 CB, | A,G, A,B,- | B,2 [E,,E,][E,,E,] | [G,,G,][A,,A,] [B,,B,][C,C]- | %25
w: * чес- тво|_ _ _ на-|* * ше|* сво- * бод-||* * * Друж-|
w: ||||||
 [C,C][A,,A,-] [A,,A,]/[B,,B,]/C, | [C,C][A,,A,-] [A,,A,]/[B,,B,]/[C,C]- | %27
w: * бы, * на- *|род- ов * на- деж-|
w: ||
 [C,C][A,,A,] [C,C][F,F]- | [F,F][F,F] z [F,F]- | [F,F]2 [F,F][E,E] | [D,D][C,C] [D,D][E,E]- | %31
w: * ный о- плот!|_ _ Знам-|* * я|* со- * вет-|
w: ||||
 [E,E]2 [C,C]C- | C2 CD- | D2 DC | B,A, B,C- | C2 A,A,- | A,2 A,C- | CB,- B,/A,/G,- | %38
w: * ско- е,|* * знам-|* * я|* на- * род-|* но- е|* * Пусть|* от * по- бе-|
w: |||||||
 G,C,- C,/C,/C- | CB,- B,/A,/G,- | G,F, G,C- | CB,- B,/A,/G,- | G,C,- C,/C,/G,- | G,2 G,A,- | %44
w: * ды, * к'по- бе-|* де * ве- дет!|* * (Мы) бе|_ _ _ _ де|_ _ _ _ ве|_ _ _|
w: ||||||
 A,B,- B,C- | C2 dC | z z G,C- | CG,- G,/A,/B,- | B,E, E,A,- | A,G,- G,/F,/G,- | G,C, C,D,- | %51
w: * * * дет!|_ _ _|Со- юз|* не- * ру- ши-|* мый рес- пуб-|* лик * сво- бод-|* ных Спло- ти-|
w: ||Мы ар-|* ми- * ю на-|* шу рас- ти-|* ли * в'сра- жень-|* ях, За- хват-|
 D,D,- D,/E,/F,- | F,F,- F,/G,/A,- | A,B,- B,/C/D- | D2 G,E- | ED- D/C/D- | DB, G,C- | %57
w: * ла * на- ве-|* ки * Ве- ли-|* ка- * я Русь.|* Да здрав-|* ству- * ет соз-|* дан- ный во-|
w: * чи- * ков под-|* лых * с'до- ро-|* ги * сме- тем!|* Мы в'бит-|* вах * ре- ша-|* ем судь- бу|
 CB,- B,/A,/B,- | B,E, E,A,- | A,G,- G,/F,/G,- | G,C, C,C- | CB,- B,/A,/G, | B,C D"^Chorus"E- | %63
w: * лей * на- ро-|* дов Е- ди-|* ный, * мо- гу-|* чий Со- вет-|* ский * Со- юз!|_ _ _ Славь-|
w: * по- * ко- ле-|* ний, Мы к'сла-|* ве * От- чиз-|* ну сво- ю|* по- * ве- дем!|_ _ _ _|
 E2 ED | CB, CD- | D2 G,G, | B,C DC- | C2 CB, | A,G, A,B,- | B,2 E,E, | G,A, B,C- | CA,- A,/B,/C- | %72
w: * * ся,|* О- * те-|* чес- тво|_ _ _ на-|* * ше|* сво- * бод-|* но- е,|_ _ _ Друж-|* бы, * на- род-|
w: |||||||||
 CA,- A,/B,/C- | CA, CF- | FF z F- | F2 FE | DC DE- | E2 CC- | C2 CD- | D2 DC | B,A, B,C- | %81
w: * ов * на- деж-|* ный о- плот!|_ _ Знам-|* * я|* со- * вет-|* ско- е,|* * знам-|* * я|* на- * род-|
w: |||||||||
 C2 A,A,- | A,2 A,C- | CB,- B,/A,/G,- | G,C,- C,/C,/C- | CB,- B,/A,/G,- | G,F, G,C- | %87
w: * но- е|* * Пусть|* от * по- бе-|* ды, * к'по- бе-|* де * ве- дет!|* * (Мы) бе|
w: ||||||
 CB,- B,/A,/G,- | G,C,- C,/C,/G,- | G,2 G,A,- | A,B,- B,C- | C2 dC | z z G,C- | CG,- G,/A,/B,- | %94
w: _ _ _ _ де|_ _ _ _ ве|_ _ _|* * * дет!|_ _ _|Со- юз|* не- * ру- ши-|
w: |||||Мы ар-|* ми- * ю на-|
 B,E, E,A,- | A,G,- G,/F,/G,- | G,C, C,D,- | D,D,- D,/E,/F,- | F,F,- F,/G,/A,- | A,B,- B,/C/D- | %100
w: * мый рес- пуб-|* лик * сво- бод-|* ных Спло- ти-|* ла * на- ве-|* ки * Ве- ли-|* ка- * я Русь.|
w: * шу рас- ти-|* ли * в'сра- жень-|* ях, За- хват-|* чи- * ков под-|* лых * с'до- ро-|* ги * сме- тем!|
 D2 G,E- | ED- D/C/D- | DB, G,C- | CB,- B,/A,/B,- | B,E, E,A,- | A,G,- G,/F,/G,- | G,C, C,C- | %107
w: * Да здрав-|* ству- * ет соз-|* дан- ный во-|* лей * на- ро-|* дов Е- ди-|* ный, * мо- гу-|* чий Со- вет-|
w: * Мы в'бит-|* вах * ре- ша-|* ем судь- бу|* по- * ко- ле-|* ний, Мы к'сла-|* ве * От- чиз-|* ну сво- ю|
 CB,- B,/A,/G, | B,C D"^Chorus"E- | E2 ED | CB, CD- | D2 G,G, | B,C DC- | C2 CB, | A,G, A,B,- | %115
w: * ский * Со- юз!|_ _ _ Славь-|* * ся,|* О- * те-|* чес- тво|_ _ _ на-|* * ше|* сво- * бод-|
w: * по- * ве- дем!|_ _ _ _|||||||
 B,2 E,E, | G,A, B,C- | CA,- A,/B,/C- | CA,- A,/B,/C- | CA, CF- | FF z F- | F2 FE | DC DE- | %123
w: * но- е,|_ _ _ Друж-|* бы, * на- род-|* ов * на- деж-|* ный о- плот!|_ _ Знам-|* * я|* со- * вет-|
w: ||||||||
 E2 CC- | C2 CD- | D2 DC | B,A, B,C- | C2 C2 |] %128
w: * ско- е,|* * знам-|* * я|* на- * род-|* род-|
w: |||||
V:3
 x2 | x4 | x4 | x4 | x4 | x4 | x4 | x4 | x4 | x4 | ^FD x2 | x4 | x4 | x4 | ^GE x2 | x4 | x4 | x4 | %18
 x4 | x4 | x4 | x4 | x4 | x2 x/4 x/4 x/4 x/4 x/4 x/4 x/ | x4 | x4 | x4 | x4 | x4 | x4 | x4 | x4 | %32
 x4 | x4 | x4 | x4 | x4 | x4 | x4 | x4 | x4 | x4 | x4 | x4 | x4 | x4 | x4 | x4 | x4 | x4 | x4 | %51
 x4 | x4 | x4 | x4 | x4 | x4 | x4 | x4 | x4 | x4 | x4 | x4 | x4 | x4 | x4 | x4 | x4 | x4 | x4 | %70
 x4 | x4 | x4 | x4 | ec x2 | x4 | x4 | x4 | EC x2 | x4 | x4 | x4 | x4 | x4 | x4 | x4 | x4 | %87
 x2 x/4 x/4 x/4 x/4 x/4 x/4 x/ | x4 | x4 | x4 | x4 | x4 | x4 | x4 | x4 | x4 | d'>^c' [^^f^a^d']2 | %98
 z2 [^fad']2 | z2 x2 | x4 | x4 | x2 [e^g]2- | [^f^a]2 [f=ad']2 | z2 [^GBe]2 | z2 x2 | x4 | x4 | %108
 x4 | x4 | x4 | x4 | x4 | x4 | x4 | x2 [^f^a]2- | [fa]2 [^^c^e^a]2 | z2 [^A^c^f]2 | z2 x2 | x4 | %120
 x4 | x4 | x4 | x4 | x4 | x4 | x4 | x4 |] %128

